X: 77
T: Fors seulement lattente
N: Derived from Ock3005-Fors_seulement_lattente.krn
C: Johannes Ockeghem
%%abc-version 2.0
%%abcx-abcm2ps-target-version 5.9.1 (29 Sep 2008)
%%abc-creator hum2abc beta
%%abcx-conversion-date 2019/02/17 07:26:16
%%abc-edited-by Jesse Rodin
%%abc-edited-by Chris Gage
%%abcx-initial-encoding-date 2015/11/01/
%%humdrum-veritas 2853263979
%%humdrum-veritas-data 728833767
%%linebreak <none>
%%barnumbers 0
L: 1/4
M: 2/1
Q: 1/2=120
V: 1 clef=treble
V: 2 clef=treble
V: 3 clef=bass
K: C
[V:1] z8 | 
[V:2] A8 | 
[V:3] A,8 | 
[V:1] z8 | 
[V:2] A4A4 | 
[V:3] A,4A,4 | 
[V:1] z8 | 
[V:2] A6GF | 
[V:3] C8- | 
[V:1] z8 | 
[V:2] E4E4 | 
[V:3] C8 | 
[V:1] z8 | 
[V:2] G4G4 | 
[V:3] E4E4 | 
[V:1] z8 | 
[V:2] F6D2 | 
[V:3] D6CB, | 
[V:1] z8 | 
[V:2] F4E4- | 
[V:3] A,8 | 
[V:1] z8 | 
[V:2] E2D2D4- | 
[V:3] G,4F,4 | 
[V:1] z8 | 
[V:2] D4^C4 | 
[V:3] E,8 | 
[V:1] A8 | 
[V:2] D8 | 
[V:3] D,6C,B,, | 
[V:1] A4A4 | 
[V:2] z8 | 
[V:3] A,,8 | 
[V:1] A6GF | 
[V:2] F6ED | 
[V:3] z8 | 
[V:1] E4E4 | 
[V:2] C6D2 | 
[V:3] z8 | 
[V:1] G4A4 | 
[V:2] E6DC | 
[V:3] z8 | 
[V:1] B4c4 | 
[V:2] D4E4 | 
[V:3] z8 | 
[V:1] d6c2 | 
[V:2] D2F4E2 | 
[V:3] z8 | 
[V:1] B2A2G4 | 
[V:2] D2C2B,4 | 
[V:3] z8 | 
[V:1] z4A4 | 
[V:2] A,8 | 
[V:3] D,8- | 
[V:1] F4D4 | 
[V:2] D6B,2 | 
[V:3] D,4B,,4 | 
[V:1] E8 | 
[V:2] C4A,4 | 
[V:3] A,,8 | 
[V:1] D4A4 | 
[V:2] B,4C4 | 
[V:3] z8 | 
[V:1] B4c4 | 
[V:2] D4E4 | 
[V:3] z4A,,4 | 
[V:1] d4e4 | 
[V:2] D4A4- | 
[V:3] B,,4C,4 | 
[V:1] f4f4 | 
[V:2] A4A4 | 
[V:3] D,8 | 
[V:1] f4e4 | 
[V:2] F4G4- | 
[V:3] z8 | 
[V:1] d6cB | 
[V:2] G4_B4 | 
[V:3] G,8 | 
[V:1] c8- | 
[V:2] A6GF | 
[V:3] A,8 | 
[V:1] c8 | 
[V:2] E2F2E2A2- | 
[V:3] C3DE2F2- | 
[V:1] z8 | 
[V:2] A2F2E4 | 
[V:3] FED2^C3B, | 
[V:1] z4c4 | 
[V:2] D4E4 | 
[V:3] D4A,4- | 
[V:1] d4e4 | 
[V:2] F4G4 | 
[V:3] A,2G,F,E,4 | 
[V:1] f6ed | 
[V:2] A4A4- | 
[V:3] D,6C,B,, | 
[V:1] c8 | 
[V:2] A2GFE4 | 
[V:3] A,,8 | 
[V:1] c4c4 | 
[V:2] E4E4 | 
[V:3] A,4C4 | 
[V:1] d8 | 
[V:2] F6ED | 
[V:3] _B,8 | 
[V:1] e8 | 
[V:2] C4c4 | 
[V:3] A,8 | 
[V:1] d4c4 | 
[V:2] B2A2A4- | 
[V:3] z4A,4 | 
[V:1] B8 | 
[V:2] A4G4 | 
[V:3] E,8 | 
[V:1] !fermata!A8- | 
[V:2] A4F2D2- | 
[V:3] F,4D,4- | 
[V:1] A8- | 
[V:2] D2C2D2E2 | 
[V:3] D,2A,,2B,,2C,2 | 
[V:1] A8 | 
[V:2] F2E2!fermata!C4 | 
[V:3] D,2E,2!fermata!A,,4 | 
[V:1] z8 | 
[V:2] A8 | 
[V:3] A,6B,2 | 
[V:1] z8 | 
[V:2] G4F4 | 
[V:3] C4D4 | 
[V:1] z8 | 
[V:2] E3FG2A2 | 
[V:3] C6A,2- | 
[V:1] z8 | 
[V:2] B2c4A2 | 
[V:3] A,4F,4 | 
[V:1] z8 | 
[V:2] _BAGFE3D | 
[V:3] A,4G,4 | 
[V:1] c8 | 
[V:2] F8 | 
[V:3] F,8 | 
[V:1] d4d4 | 
[V:2] z8 | 
[V:3] _B,4B,4 | 
[V:1] c4A4 | 
[V:2] c8 | 
[V:3] A,4F,4 | 
[V:1] _B4B4 | 
[V:2] d4d4 | 
[V:3] z4G,4 | 
[V:1] A4F4 | 
[V:2] c4A4 | 
[V:3] A,8 | 
[V:1] G8 | 
[V:2] _B4B4 | 
[V:3] G,4E,4 | 
[V:1] F6ED | 
[V:2] A4c4- | 
[V:3] F,8- | 
[V:1] C4z4 | 
[V:2] c2_BAG4 | 
[V:3] F,4E,4 | 
[V:1] c8 | 
[V:2] F8 | 
[V:3] z4F,4- | 
[V:1] A4A4 | 
[V:2] F8 | 
[V:3] F,8- | 
[V:1] F8 | 
[V:2] D4D4 | 
[V:3] F,4D,4 | 
[V:1] E6F2 | 
[V:2] C8 | 
[V:3] A,,8 | 
[V:1] G4A4 | 
[V:2] C4F4 | 
[V:3] z8 | 
[V:1] G2F2E4 | 
[V:2] E2D4^C2 | 
[V:3] A,,8 | 
[V:1] z4D4- | 
[V:2] D8 | 
[V:3] D,8- | 
[V:1] D4F4- | 
[V:2] B,4A,4 | 
[V:3] D,8- | 
[V:1] F2G2A4- | 
[V:2] D8- | 
[V:3] D,8 | 
[V:1] A2B2c4- | 
[V:2] D4C4 | 
[V:3] B,,4A,,4 | 
[V:1] c2B2G4- | 
[V:2] E8 | 
[V:3] C,8 | 
[V:1] G2A2B2c2 | 
[V:2] C4D2E2 | 
[V:3] E,8 | 
[V:1] d6c2 | 
[V:2] F2D4F2- | 
[V:3] D,8 | 
[V:1] A2G2c4 | 
[V:2] F2E4C2 | 
[V:3] A,8 | 
[V:1] B2A4^G2 | 
[V:2] D2A,2B,4 | 
[V:3] E,8 | 
[V:1] A8 |]  
[V:2] A,8 |]  
[V:3] A,,8 |]  



